packages/core/src/svgs/tokens/mono/IGU.svg

<svg width="24" height="24" viewBox="0 0 24 24" fill="none" xmlns="http://www.w3.org/2000/svg">
<path d="M11.9991 21.9976C13.4332 21.998 14.8504 21.6899 16.1549 21.0942C17.4592 20.4986 18.6203 19.6294 19.5591 18.5454C20.498 17.4616 21.1927 16.1884 21.5962 14.8124C21.9996 13.4362 22.1023 11.9896 21.8974 10.5703L19.6331 12.4052C19.5248 14.3672 18.6652 16.2123 17.2328 17.5574C15.8004 18.9025 13.9051 19.6445 11.9401 19.6294C9.97514 19.6143 8.09149 18.8432 6.67996 17.4761C5.26843 16.1091 4.43742 14.2511 4.35939 12.2876L4.17707 12.2817L2.10098 10.582C1.89785 12.0004 2.00197 13.4458 2.40624 14.8205C2.81052 16.1951 3.50554 17.4668 4.4442 18.5493C5.38287 19.6319 6.54324 20.5 7.84673 21.095C9.15021 21.6899 10.5663 21.9977 11.9991 21.9976ZM17.457 6.11816L20.9446 7.52967C20.2842 6.20891 19.3396 5.05082 18.1785 4.13858C17.0174 3.22636 15.6685 2.58265 14.2291 2.25369C12.7896 1.92474 11.2951 1.91873 9.853 2.23607C8.41087 2.55343 7.05696 3.18627 5.88852 4.08913L9.86425 4.54199L10.0995 4.59491C11.2289 4.30594 12.4093 4.27864 13.5509 4.5151C14.6924 4.75156 15.7649 5.24554 16.6865 5.95936L17.457 6.12404V6.11816ZM8.91738 14.7048C7.05889 12.0112 3.97123 9.51751 2.65382 8.60006C2.5656 8.52361 2.38916 8.30599 2.40681 8.06486C2.40681 6.27108 4.97104 5.5065 6.61192 5.5065C7.55292 5.5065 8.19986 5.60649 8.75858 5.68883C9.17027 5.74764 9.529 5.80646 9.92313 5.80646C10.376 5.80646 10.9935 5.70648 11.6168 5.61238C12.2639 5.51239 12.9167 5.41241 13.4107 5.41241C14.187 5.41241 14.7752 5.75941 14.9692 5.92997C13.8517 6.04759 12.6167 6.424 12.1344 6.60043C12.5873 6.75335 12.9754 7.13563 13.1166 7.30618C15.975 6.31225 18.0569 7.12387 18.7333 7.65317C17.1929 7.66433 15.6713 7.99265 14.2634 8.61771L14.9692 9.2646C16.9394 8.70005 18.1274 9.19995 18.4745 9.52341C17.6804 9.58228 16.5925 9.84686 16.1454 9.97627C16.9571 10.3998 18.5921 11.2466 18.6391 11.2466C18.9391 14.4048 17.1393 15.0223 15.1045 15.04C13.1871 15.0577 12.8755 15.9281 12.5991 16.7045L12.552 16.8515C12.3167 17.4984 12.258 18.8688 12.258 19.4745C11.9286 18.0454 11.2287 14.8813 11.1052 13.7108C10.9699 12.417 11.4933 12.3052 11.958 12.2053L12.1344 12.1641C12.6285 12.0288 13.1755 11.5054 12.9578 10.8114C12.7872 10.2644 12.3933 9.81159 12.2168 9.65872C13.0695 11.323 12.6049 11.4818 11.7462 11.77C11.5992 11.823 11.4346 11.8759 11.2699 11.9465C10.1347 12.4052 10.4229 14.3402 10.4936 14.8166C10.5523 15.1929 11.0229 17.1397 11.2581 18.0631C9.529 18.3982 8.99383 17.1397 8.74682 16.5751C8.55274 16.1222 8.0293 14.8107 7.79405 14.2167C8.17045 14.3167 8.69976 14.5813 8.91149 14.6989L8.91738 14.7048ZM6.97067 6.23578C6.5095 6.2001 6.04563 6.24588 5.60033 6.37105C5.66165 6.63735 5.81375 6.87399 6.03055 7.04032C6.24733 7.20667 6.51527 7.29236 6.78836 7.28266C7.24709 7.28266 7.6235 6.89449 7.75288 6.69453L6.97067 6.22991V6.23578Z" fill="white"/>
</svg>

<svg xmlns="http://www.w3.org/2000/svg" width="24" height="24" fill="none" viewBox="0 0 24 24">
    <path fill="#fff" d="M12 21.998a9.997 9.997 0 0 0 9.897-11.428l-2.264 1.835a7.646 7.646 0 0 1-15.274-.117l-.182-.006-2.076-1.7a10 10 0 0 0 9.898 11.416m5.457-15.88 3.488 1.412A10 10 0 0 0 5.889 4.09l3.975.452.236.053a7.66 7.66 0 0 1 6.586 1.364l.771.165zm-8.54 8.587C7.06 12.01 3.971 9.518 2.654 8.6c-.088-.076-.265-.294-.247-.535 0-1.794 2.564-2.558 4.205-2.558.94 0 1.588.1 2.147.182.411.059.77.117 1.164.117.453 0 1.07-.1 1.694-.194.647-.1 1.3-.2 1.794-.2.776 0 1.364.347 1.558.518-1.117.118-2.352.494-2.835.67.453.153.841.536.983.706 2.858-.994 4.94-.182 5.616.347-1.54.011-3.062.34-4.47.965l.706.647c1.97-.565 3.158-.065 3.505.258-.794.06-1.881.324-2.329.453.812.424 2.447 1.27 2.494 1.27.3 3.159-1.5 3.776-3.534 3.794-1.918.018-2.23.888-2.506 1.665l-.047.147c-.235.646-.294 2.017-.294 2.622-.33-1.429-1.03-4.593-1.153-5.763-.135-1.294.388-1.406.853-1.506l.176-.04c.495-.136 1.041-.66.824-1.354a2.8 2.8 0 0 0-.741-1.152c.852 1.664.388 1.823-.47 2.111-.148.053-.312.106-.477.177-1.135.458-.847 2.393-.776 2.87.058.376.529 2.323.764 3.246-1.729.335-2.264-.923-2.511-1.488-.194-.453-.718-1.764-.953-2.358.376.1.906.364 1.117.482zM6.97 6.235a4 4 0 0 0-1.37.136 1.176 1.176 0 0 0 1.187.912c.46 0 .835-.389.965-.588L6.97 6.23z"/>
</svg>
